Numix/16/status/indicator-keyboard-Hy-2.svg

<?xml version="1.0" encoding="UTF-8" standalone="no"?>
<svg
   xmlns:dc="http://purl.org/dc/elements/1.1/"
   xmlns:cc="http://creativecommons.org/ns#"
   xmlns:rdf="http://www.w3.org/1999/02/22-rdf-syntax-ns#"
   xmlns:svg="http://www.w3.org/2000/svg"
   xmlns="http://www.w3.org/2000/svg"
   xmlns:sodipodi="http://sodipodi.sourceforge.net/DTD/sodipodi-0.dtd"
   xmlns:inkscape="http://www.inkscape.org/namespaces/inkscape"
   viewBox="0 0 16 16"
   id="svg2"
   version="1.1"
   inkscape:version="0.91 r13725"
   sodipodi:docname="indicator-keyboard-Hy-2.svg">
  <metadata
     id="metadata14">
    <rdf:RDF>
      <cc:Work
         rdf:about="">
        <dc:format>image/svg+xml</dc:format>
        <dc:type
           rdf:resource="http://purl.org/dc/dcmitype/StillImage" />
      </cc:Work>
    </rdf:RDF>
  </metadata>
  <defs
     id="defs12" />
  <sodipodi:namedview
     pagecolor="#ffffff"
     bordercolor="#666666"
     borderopacity="1"
     objecttolerance="10"
     gridtolerance="10"
     guidetolerance="10"
     inkscape:pageopacity="0"
     inkscape:pageshadow="2"
     inkscape:window-width="640"
     inkscape:window-height="480"
     id="namedview10"
     showgrid="false"
     inkscape:zoom="14.75"
     inkscape:cx="8"
     inkscape:cy="8"
     inkscape:window-x="65"
     inkscape:window-y="24"
     inkscape:window-maximized="0"
     inkscape:current-layer="svg2" />
  <path
     style="fill:#ececec;fill-opacity:1"
     d="M 1.5996094 0 C 0.71320937 2.9605947e-16 0 0.71320937 0 1.5996094 L 0 14.400391 C 2.9605947e-16 15.286791 0.71320937 16 1.5996094 16 L 14.400391 16 C 15.286791 16 16 15.286791 16 14.400391 L 16 1.5996094 C 16 0.71320937 15.286791 0 14.400391 0 L 1.5996094 0 z M 1.7539062 4.859375 L 2.3652344 4.859375 L 2.3652344 7.5683594 L 5.75 7.5683594 L 5.75 4.859375 L 6.3613281 4.859375 L 6.3613281 11.095703 L 5.75 11.095703 L 5.75 8.0996094 L 2.3652344 8.0996094 L 2.3652344 11.095703 L 1.7539062 11.095703 L 1.7539062 4.859375 z M 7.3457031 6.4433594 L 7.9667969 6.4433594 C 8.0327969 6.7313594 8.11675 7.0429062 8.21875 7.3789062 C 8.32075 7.7089063 8.4365 8.0502969 8.5625 8.4042969 C 8.6945 8.7582969 8.8381406 9.1221406 8.9941406 9.4941406 C 9.1501406 9.8661408 9.3180469 10.231797 9.4980469 10.591797 C 9.6300469 10.219797 9.7456562 9.8690627 9.8476562 9.5390625 C 9.9496562 9.2090625 10.042953 8.8825937 10.126953 8.5585938 C 10.216953 8.2285937 10.300906 7.8927813 10.378906 7.5507812 C 10.462906 7.2087813 10.550625 6.8393594 10.640625 6.4433594 L 11.226562 6.4433594 C 11.034563 7.3133594 10.814359 8.1584688 10.568359 8.9804688 C 10.322359 9.8024689 10.055578 10.556234 9.7675781 11.240234 C 9.6535781 11.510234 9.5360156 11.741594 9.4160156 11.933594 C 9.2960156 12.131594 9.1617188 12.293922 9.0117188 12.419922 C 8.8677187 12.545922 8.6960469 12.637266 8.4980469 12.697266 C 8.3060469 12.757266 8.0784531 12.787109 7.8144531 12.787109 C 7.6644531 12.787109 7.5263906 12.770375 7.4003906 12.734375 C 7.2803906 12.698375 7.2057812 12.670344 7.1757812 12.652344 L 7.2929688 12.167969 C 7.3169688 12.185969 7.3822344 12.208281 7.4902344 12.238281 C 7.6042344 12.274281 7.7217969 12.292969 7.8417969 12.292969 C 8.0097969 12.292969 8.1590156 12.274281 8.2910156 12.238281 C 8.4290156 12.202281 8.5521562 12.140781 8.6601562 12.050781 C 8.7681563 11.966781 8.8652187 11.854797 8.9492188 11.716797 C 9.0392187 11.578797 9.1249844 11.405312 9.2089844 11.195312 C 9.0109844 10.829313 8.8188125 10.448734 8.6328125 10.052734 C 8.4528125 9.6567342 8.2830938 9.2574688 8.1210938 8.8554688 C 7.9650938 8.4474688 7.8214531 8.042625 7.6894531 7.640625 C 7.5574531 7.232625 7.4417031 6.8333594 7.3457031 6.4433594 z M 12.917969 8.7539062 C 13.311869 8.7539062 13.607741 8.851875 13.806641 9.046875 C 14.005541 9.237975 14.105469 9.5044563 14.105469 9.8476562 C 14.105469 9.9997563 14.078037 10.14475 14.023438 10.28125 C 13.968837 10.41385 13.894381 10.543169 13.800781 10.667969 C 13.711081 10.792769 13.609187 10.912297 13.492188 11.029297 C 13.375187 11.146297 13.255666 11.263859 13.134766 11.380859 C 13.033366 11.478359 12.933437 11.578288 12.835938 11.679688 C 12.742337 11.777188 12.656125 11.877116 12.578125 11.978516 C 12.504025 12.076016 12.445237 12.172031 12.398438 12.269531 C 12.355537 12.363131 12.333984 12.457181 12.333984 12.550781 L 12.333984 12.5625 L 14.246094 12.5625 L 14.246094 12.896484 L 11.912109 12.896484 C 11.912109 12.888684 11.910183 12.874969 11.90625 12.855469 L 11.90625 12.755859 C 11.90625 12.572559 11.939559 12.402094 12.005859 12.246094 C 12.072159 12.086194 12.156412 11.937275 12.257812 11.796875 C 12.363112 11.656475 12.476763 11.525197 12.601562 11.404297 C 12.730262 11.283397 12.853703 11.165834 12.970703 11.052734 C 13.068203 10.959134 13.160294 10.869003 13.246094 10.783203 C 13.335794 10.693503 13.414169 10.603366 13.480469 10.509766 C 13.546769 10.416166 13.597719 10.316237 13.636719 10.210938 C 13.675719 10.105638 13.695312 9.9900344 13.695312 9.8652344 C 13.695312 9.5922344 13.622809 9.39825 13.474609 9.28125 C 13.330309 9.16035 13.146128 9.0996094 12.923828 9.0996094 C 12.799028 9.0996094 12.687344 9.1152844 12.589844 9.1464844 C 12.492344 9.1776844 12.408084 9.2149125 12.333984 9.2578125 C 12.263784 9.2968125 12.203044 9.3379594 12.152344 9.3808594 C 12.101644 9.4237594 12.064416 9.4570688 12.041016 9.4804688 L 11.841797 9.2167969 C 11.865197 9.1894969 11.906344 9.1503094 11.964844 9.0996094 C 12.027244 9.0450094 12.103659 8.9921062 12.193359 8.9414062 C 12.286959 8.8907063 12.392772 8.8476 12.513672 8.8125 C 12.634572 8.7735 12.769769 8.7539063 12.917969 8.7539062 z "
     id="path4" />
</svg>

<svg xmlns="http://www.w3.org/2000/svg" viewBox="0 0 16 16">
 <path d="m 1.6 0 c -0.886 0 -1.6 0.713 -1.6 1.6 l 0 12.801 c 0 0.886 0.713 1.6 1.6 1.6 l 12.801 0 c 0.886 0 1.6 -0.713 1.6 -1.6 l 0 -12.801 c 0 -0.886 -0.713 -1.6 -1.6 -1.6 l -12.801 0 z m 0.154 4.859 l 0.611 0 l 0 2.709 l 3.385 0 l 0 -2.709 l 0.611 0 l 0 6.236 l -0.611 0 l 0 -2.996 l -3.385 0 l 0 2.996 l -0.611 0 l 0 -6.236 z m 5.592 1.584 l 0.621 0 c 0.066 0.288 0.15 0.6 0.252 0.936 c 0.102 0.33 0.218 0.671 0.344 1.025 c 0.132 0.354 0.276 0.718 0.432 1.09 c 0.156 0.372 0.324 0.738 0.504 1.098 c 0.132 -0.372 0.248 -0.723 0.35 -1.053 c 0.102 -0.33 0.195 -0.656 0.279 -0.98 c 0.09 -0.33 0.174 -0.666 0.252 -1.01 c 0.084 -0.342 0.172 -0.711 0.262 -1.107 l 0.586 0 c -0.192 0.87 -0.412 1.715 -0.658 2.537 c -0.246 0.822 -0.513 1.576 -0.801 2.26 c -0.114 0.27 -0.232 0.501 -0.352 0.693 c -0.12 0.198 -0.254 0.36 -0.404 0.486 c -0.144 0.126 -0.316 0.217 -0.514 0.277 c -0.192 0.06 -0.42 0.09 -0.684 0.09 c -0.15 0 -0.288 -0.017 -0.414 -0.053 c -0.12 -0.036 -0.195 -0.064 -0.225 -0.082 l 0.117 -0.484 c 0.024 0.018 0.089 0.04 0.197 0.07 c 0.114 0.036 0.232 0.055 0.352 0.055 c 0.168 0 0.317 -0.019 0.449 -0.055 c 0.138 -0.036 0.261 -0.098 0.369 -0.188 c 0.108 -0.084 0.205 -0.196 0.289 -0.334 c 0.09 -0.138 0.176 -0.311 0.26 -0.521 c -0.198 -0.366 -0.39 -0.747 -0.576 -1.143 c -0.18 -0.396 -0.35 -0.795 -0.512 -1.197 c -0.156 -0.408 -0.3 -0.813 -0.432 -1.215 c -0.132 -0.408 -0.248 -0.807 -0.344 -1.197 z m 5.572 2.311 c 0.394 0 0.69 0.098 0.889 0.293 c 0.199 0.191 0.299 0.458 0.299 0.801 c 0 0.152 -0.027 0.297 -0.082 0.434 c -0.055 0.133 -0.129 0.262 -0.223 0.387 c -0.09 0.125 -0.192 0.244 -0.309 0.361 c -0.117 0.117 -0.237 0.235 -0.357 0.352 c -0.101 0.098 -0.201 0.197 -0.299 0.299 c -0.094 0.098 -0.18 0.197 -0.258 0.299 c -0.074 0.097 -0.133 0.194 -0.18 0.291 c -0.043 0.094 -0.064 0.188 -0.064 0.281 l 0 0.012 l 1.912 0 l 0 0.334 l -2.334 0 c 0 -0.008 -0.002 -0.022 -0.006 -0.041 l 0 -0.1 c 0 -0.183 0.033 -0.354 0.1 -0.51 c 0.066 -0.16 0.151 -0.309 0.252 -0.449 c 0.105 -0.14 0.219 -0.272 0.344 -0.393 c 0.129 -0.121 0.252 -0.238 0.369 -0.352 c 0.098 -0.094 0.19 -0.184 0.275 -0.27 c 0.09 -0.09 0.168 -0.18 0.234 -0.273 c 0.066 -0.094 0.117 -0.194 0.156 -0.299 c 0.039 -0.105 0.059 -0.221 0.059 -0.346 c 0 -0.273 -0.073 -0.467 -0.221 -0.584 c -0.144 -0.121 -0.328 -0.182 -0.551 -0.182 c -0.125 0 -0.236 0.016 -0.334 0.047 c -0.098 0.031 -0.182 0.068 -0.256 0.111 c -0.07 0.039 -0.131 0.08 -0.182 0.123 c -0.051 0.043 -0.088 0.076 -0.111 0.1 l -0.199 -0.264 c 0.023 -0.027 0.065 -0.066 0.123 -0.117 c 0.062 -0.055 0.139 -0.108 0.229 -0.158 c 0.094 -0.051 0.199 -0.094 0.32 -0.129 c 0.121 -0.039 0.256 -0.059 0.404 -0.059 z" style="fill:#ececec;fill-opacity:1"/>
</svg>
